X:1
T:Title
%%score { ( 1 2 5 ) | ( 3 4 ) }
L:1/8
Q:1/4=100
M:4/4
K:Db
V:1 treble nm="Grand Piano"
V:2 treble 
V:5 treble 
V:3 bass 
V:4 bass 
V:1
 z4 z2 .[Dd]2 | [B,GB]2 [A,FA]2 [G,EG]2 [F,DF]2 | [A,FA]2 [F,DF]2 [G,EG]3 [EG] | [F,DF]6 z2 | %4
 z4 z2 .[Dd]2 | [B,GB]2 [A,FA]2[K:bass] [G,EG]2 [F,DF]2 | [E,CE]4 [F,DF]4 | [G,EG]6 z2 | %8
 z4 z2 .[Dd]2 | [B,GB]2 [A,FA]2 [G,EG]2 [F,DF]2 | [A,FA]2[K:bass] [F,DF]2 z2 z[K:treble] [EG] | %11
 [F,DF]6 z2 | [B,EB]2 [B,FB]2 [B,GB]2 [EG]2 | [F,DF]4 [G,CG]4 | [DF]8- | [DF]6 z2 |[M:1/4] [Fd]2 | %17
[M:4/4] [Gc]3 B ABce | [Fd]2 [_FB]2 [=FA]2 [Fd]2 | [Gc]3 B ABce | [Fd]2 [_FB]2 [=FA]2 [GA]2 | %21
 [Fd]3 F FFGA | c2 B2 d2 e2 | %23
 f3 d ABcd[Q:1/4=97][Q:1/4=94][Q:1/4=91][Q:1/4=88][Q:1/4=84][Q:1/4=81][Q:1/4=78] | %24
[M:9/8] e2 A- A [Fd]2- [Fd] z z |] %25
V:2
 [F,DF]2 [G,EG]2 [A,FA]2 F-[Fc] | x8 | x8 | x8 | [A,FA]2 [B,FB]2 [CFc]2 F-[Fc] | x4[K:bass] x4 | %6
 x8 | x8 | [F,DF]2 [G,EG]2 [A,FA]2 F-[Fc] | x8 | z4[K:bass] [G,EG]4[K:treble] | x8 | x8 | x8 | %14
 F,8 | F,6 z2 |[M:1/4] x2 |[M:4/4] x8 | x8 | x8 | x8 | x8 | x8 | x8 |[M:9/8] x9 |] %25
V:3
 z4 z2 D,2 | D,,2 D,2 D,,2 D,2 | z4 z2 A,,2 | D,,2 D,2 D,,2 D,2 | z4 z2 D,2 | D,,2 D,2 D,,2 D,2 | %6
 A,,,2 A,,2 A,,,2 A,,2 | A,,,2 A,,2 A,,2 A,,2 | z4 z2 D,2 | D,,2 D,2 D,,2 D,2 | %10
 A,,,2 A,,2 [A,,,A,,]2 z G, | B,,,2 B,,2 B,,,2 B,,2 | [G,,G,]2 [F,,F,]2 [E,,E,]2 [G,,G,]2 | %13
 A,,2 A,,,2 A,,2 A,,,2 | F,,2 B,,2 A,,2 G,,2 | D,,6 z2 |[M:1/4] [D,A,]2 | %17
[M:4/4] [E,A,]3[K:treble] [A,DG] [A,CG][A,DG][A,EG][A,CG] | [D,A,]2 [D,=G,]2 [D,A,]2 [D,A,]2 | %19
 [E,A,]3[K:treble] [A,DG] [A,CG][A,B,G][A,EG][A,CG] | [D,A,]2 [D,=G,]2 [D,A,]2 [A,C]2 | %21
 [D,D]3 [D,A,D] [D,A,D][D,A,D][E,A,C][F,A,D] | [G,DA]2 [G,DG]2 [G,B,G]2 [B,D=G]2 | %23
 [A,DA]3 [A,DF] [A,DF][A,DF][A,DF][A,DF] | %24
[M:9/8] [A,CG]2 [A,CG]- [A,CG][K:bass] [D,A,]2- [D,A,] z z |] %25
V:4
 D,,2 D,2 D,,2 z C | x8 | A,,,2 A,,2 A,,,2 z G, | x8 | D,,2 D,2 D,,2 z C | x8 | x8 | x8 | %8
 D,,2 D,2 D,,2 z C | x8 | z4 z2 =A,,,2 | x8 | x8 | x8 | x8 | x8 |[M:1/4] x2 | %17
[M:4/4] x3[K:treble] x5 | x8 | x3[K:treble] x5 | x8 | x8 | x8 | x8 |[M:9/8] x4[K:bass] x5 |] %25
V:5
 x8 | x8 | x8 | x8 | x8 | x4[K:bass] x4 | x8 | x8 | x8 | x8 | z4[K:bass] z2 =A,,2[K:treble] | x8 | %12
 x8 | x8 | x8 | x8 |[M:1/4] x2 |[M:4/4] x8 | x8 | x8 | x8 | x8 | x8 | x8 |[M:9/8] x9 |] %25

